X: 16766
T: Hare's Paw, The
R: reel
M: 4/4
K: Gmajor
G3B A2GA|BE~E2 BE~E2|G3B A2GA|Bgfg edBA|
G3B A2GA|BE~E2 BE~E2|G3B A2GA|Bgfg e2ef||
g2fg edBd|edgf edBd|g2fg edBd|edgf e2ef|
g2fg edBd|edgf edBd|e3d efge|dBAB GDED:|

